X: 15330
T: Glad Låt
R: slip jig
M: 9/8
K: Amajor
a2e fed c2e|a2(a a)ga b2g|a2e fed c2A|(B3[B6)E6]|
a2e fed c2e|a2(a a)ga b2g|a2e fed c2A|1 BAG A6:|2 BAG A3 B2c||
d2f e2d c2A|BAG A3 B2c|d2f e2d cA2|(B3[B3)E3] B2c|d2f e2d c2A|
BAG A3 B2c|d2f e2d cA2|a2(a a)ga b2g|a2e fed c2A|1 BAG A3 B2c:|2 BAG A6:|

